X:163
M:3/8
L:1/8
Q:3/8=70
K:F Minor
f/c/ a/>g/f/>=e/|f2 f/g/|a/g/f/=e/f|_e>dc|B/A/G/F/c|F>EC|c>BA|
c/>B/A/>G/F/>=E/|FAc|F2||

